X:2
T:The Gates of Mullach
R:reel
C:Josepine Keegan
B:The Keegan Tunes
D:Laoise Kelly, Just Harp
Z:Paul Stewart Cranford (P.S.C.) <http://www.cranfordpub.com>
N:setting from Laoise
Q:333
L:1/8
M:C|
K:G
G3 B dGBd|ecdB cBAF|D/D/D DE FGAB|(3cBA ed cAFA|
Gggf gdBd|ecdB cBAc|Bg (3gfg bgag fdcA BGG||
A|Bdge dB ~B2|cBAG FADA|GABG Aaag|fgag fdcA|
Gg (3gfg dBGB|cBAG (3FGA DC|B,DGF Ec (3cBc|dBcA BAFA|]
